svg/icon/edo.svg

<svg height="32" viewBox="0 0 32 32" width="32" xmlns="http://www.w3.org/2000/svg" xmlns:xlink="http://www.w3.org/1999/xlink"><defs><linearGradient id="a" x1="50%" x2="50%" y1="0%" y2="100%"><stop offset="0" stop-color="#fff" stop-opacity=".5"/><stop offset="1" stop-opacity=".5"/></linearGradient><circle id="b" cx="16" cy="15" r="15"/><filter id="c" height="111.7%" width="111.7%" x="-5.8%" y="-4.2%"><feOffset dy=".5" in="SourceAlpha" result="shadowOffsetOuter1"/><feGaussianBlur in="shadowOffsetOuter1" result="shadowBlurOuter1" stdDeviation=".5"/><feComposite in="shadowBlurOuter1" in2="SourceAlpha" operator="out" result="shadowBlurOuter1"/><feColorMatrix in="shadowBlurOuter1" values="0 0 0 0 0   0 0 0 0 0   0 0 0 0 0  0 0 0 0.199473505 0"/></filter><path id="d" d="m13.059232 22.8742361 2.6841157-2.6977024 2.6932156 2.6977024-1.71861 1.7214015c-.2582909.2588772-.6089614.4043624-.9746556.4043624-.3656943 0-.7163648-.1454852-.9746557-.4043624zm6.9514405-9.2426081-2.6923157-2.6968024 2.6923157-2.69680232 2.6923157 2.69680232zm-.6692039 8.3636073-2.6937157-2.6977023 7.2300421-7.2416064 1.71851 1.7215015c.53826.5395846.53826 1.4130172 0 1.9526018zm-7.4032431-.2783002-2.69231565-2.6969024 7.21824205-7.2302063 2.6923156 2.6968024zm-3.82222223-3.8002033-1.71851-1.7214015c-.53479358-.543019-.52924703-1.4164187.01240007-1.9526018l1.71831-1.7215015 2.69321566 2.6978024zm10.76696263-10.78790949-7.229542 7.23860639-2.69351572-2.6974024 6.25513642-6.2657055c.258304-.25885261.6089696-.4043208.9746557-.4043208.365686 0 .7163516.14546819.9746556.4043208z"/><filter id="e" height="117.5%" width="117.5%" x="-8.8%" y="-6.2%"><feOffset dy=".5" in="SourceAlpha" result="shadowOffsetOuter1"/><feGaussianBlur in="shadowOffsetOuter1" result="shadowBlurOuter1" stdDeviation=".5"/><feColorMatrix in="shadowBlurOuter1" values="0 0 0 0 0   0 0 0 0 0   0 0 0 0 0  0 0 0 0.204257246 0"/></filter></defs><g fill="none" fill-rule="evenodd"><use fill="#000" filter="url(#c)" xlink:href="#b"/><use fill="#242424" xlink:href="#b"/><use fill="url(#a)" xlink:href="#b"/><circle cx="16" cy="15" r="14.5" stroke="#000" stroke-opacity=".097"/><g fill-rule="nonzero"><use fill="#000" filter="url(#e)" xlink:href="#d"/><use fill="#fff" fill-rule="evenodd" xlink:href="#d"/></g></g></svg>

<svg xmlns="http://www.w3.org/2000/svg" xmlns:xlink="http://www.w3.org/1999/xlink" width="32" height="32" viewBox="0 0 32 32">
  <defs>
    <linearGradient id="edo-c" x1="50%" x2="50%" y1="0%" y2="100%">
      <stop offset="0%" stop-color="#FFF" stop-opacity=".5"/>
      <stop offset="100%" stop-opacity=".5"/>
    </linearGradient>
    <circle id="edo-b" cx="16" cy="15" r="15"/>
    <filter id="edo-a" width="111.7%" height="111.7%" x="-5.8%" y="-4.2%" filterUnits="objectBoundingBox">
      <feOffset dy=".5" in="SourceAlpha" result="shadowOffsetOuter1"/>
      <feGaussianBlur in="shadowOffsetOuter1" result="shadowBlurOuter1" stdDeviation=".5"/>
      <feComposite in="shadowBlurOuter1" in2="SourceAlpha" operator="out" result="shadowBlurOuter1"/>
      <feColorMatrix in="shadowBlurOuter1" values="0 0 0 0 0   0 0 0 0 0   0 0 0 0 0  0 0 0 0.199473505 0"/>
    </filter>
    <path id="edo-e" d="M13.059232,22.8742361 L15.7433477,20.1765337 L18.4365633,22.8742361 L16.7179533,24.5956376 C16.4596624,24.8545148 16.1089919,25 15.7432977,25 C15.3776034,25 15.0269329,24.8545148 14.768642,24.5956376 L13.059232,22.8742361 Z M20.0106725,13.631628 L17.3183568,10.9348256 L20.0106725,8.23802328 L22.7029882,10.9348256 L20.0106725,13.631628 Z M19.3414686,21.9952353 L16.6477529,19.297533 L23.877795,12.0559266 L25.596305,13.7774281 C26.134565,14.3170127 26.134565,15.1904453 25.596305,15.7300299 L19.3414686,21.9952353 Z M11.9382255,21.7169351 L9.24590985,19.0200327 L16.4641519,11.7898264 L19.1564675,14.4866288 L11.9382255,21.7169351 Z M8.11600327,17.9167318 L6.39749327,16.1953303 C5.86269969,15.6523113 5.86824624,14.7789116 6.40989334,14.2427285 L8.12820334,12.521227 L10.821419,15.2190294 L8.11600327,17.9167318 Z M18.8829659,7.12882231 L11.6534239,14.3674287 L8.95990818,11.6700263 L15.2150446,5.4043208 C15.4733486,5.14546819 15.8240142,5 16.1897003,5 C16.5553863,5 16.9060519,5.14546819 17.1643559,5.4043208 L18.8829659,7.12882231 Z"/>
    <filter id="edo-d" width="117.5%" height="117.5%" x="-8.8%" y="-6.2%" filterUnits="objectBoundingBox">
      <feOffset dy=".5" in="SourceAlpha" result="shadowOffsetOuter1"/>
      <feGaussianBlur in="shadowOffsetOuter1" result="shadowBlurOuter1" stdDeviation=".5"/>
      <feColorMatrix in="shadowBlurOuter1" values="0 0 0 0 0   0 0 0 0 0   0 0 0 0 0  0 0 0 0.204257246 0"/>
    </filter>
  </defs>
  <g fill="none" fill-rule="evenodd">
    <use fill="#000" filter="url(#edo-a)" xlink:href="#edo-b"/>
    <use fill="#242424" xlink:href="#edo-b"/>
    <use fill="url(#edo-c)" style="mix-blend-mode:soft-light" xlink:href="#edo-b"/>
    <circle cx="16" cy="15" r="14.5" stroke="#000" stroke-opacity=".097"/>
    <g fill-rule="nonzero">
      <use fill="#000" filter="url(#edo-d)" xlink:href="#edo-e"/>
      <use fill="#FFF" fill-rule="evenodd" xlink:href="#edo-e"/>
    </g>
  </g>
</svg>
